swiss/communes/3733.svg

<svg xmlns="http://www.w3.org/2000/svg" height="264.573" width="226.773" xml:space="preserve"><path style="fill:#0fab4b;fill-opacity:1;fill-rule:evenodd;stroke:none" d="M850.391 17.5C391.137 17.5 17.5 391.129 17.5 850.391V1966.75h1665.79V850.391c0-459.262-373.63-832.891-832.899-832.891" transform="matrix(.13333 0 0 -.13333 0 264.573)"/><path style="fill:#231f20;fill-opacity:1;fill-rule:nonzero;stroke:none" d="M1700.79 1984.25H0V850.391C0 380.73 380.734 0 850.391 0c469.669 0 850.399 380.73 850.399 850.391V1984.25zm-35-35V850.391C1665.79 400.781 1300.01 35 850.391 35 400.781 35 35 400.781 35 850.391V1949.25h1630.79" transform="matrix(.13333 0 0 -.13333 0 264.573)"/><path style="fill:#fddd04;fill-opacity:1;fill-rule:nonzero;stroke:none" d="m678.215 1347.85 172.176 439.69 172.189-439.69 466.87 70.73-294.7-368.95 294.7-368.958-466.87 70.726-172.189-439.687-172.176 439.687-466.875-70.726 294.691 368.958-294.691 368.95 466.875-70.73" transform="matrix(.13333 0 0 -.13333 0 264.573)"/><path style="fill:none;stroke:#231f20;stroke-width:10;stroke-linecap:butt;stroke-linejoin:miter;stroke-miterlimit:10;stroke-dasharray:none;stroke-opacity:1" d="m678.215 1347.85 172.176 439.69 172.189-439.69 466.87 70.73-294.7-368.95 294.7-368.958-466.87 70.726-172.189-439.687-172.176 439.687-466.875-70.726 294.691 368.958-294.691 368.95z" transform="matrix(.13333 0 0 -.13333 0 264.573)"/></svg>

<?xml version="1.0" encoding="UTF-8" standalone="no"?>
<svg
   xmlns:dc="http://purl.org/dc/elements/1.1/"
   xmlns:cc="http://creativecommons.org/ns#"
   xmlns:rdf="http://www.w3.org/1999/02/22-rdf-syntax-ns#"
   xmlns:svg="http://www.w3.org/2000/svg"
   xmlns="http://www.w3.org/2000/svg"
   viewBox="0 0 226.77333 264.57333"
   height="264.57333"
   width="226.77333"
   xml:space="preserve"
   id="svg2"
   version="1.1"><metadata
     id="metadata8"><rdf:RDF><cc:Work
         rdf:about=""><dc:format>image/svg+xml</dc:format><dc:type
           rdf:resource="http://purl.org/dc/dcmitype/StillImage" /></cc:Work></rdf:RDF></metadata><defs
     id="defs6" /><g
     transform="matrix(1.3333333,0,0,-1.3333333,0,264.57333)"
     id="g10"><g
       transform="scale(0.1)"
       id="g12"><path
         id="path14"
         style="fill:#0fab4b;fill-opacity:1;fill-rule:evenodd;stroke:none"
         d="M 850.391,17.5 C 391.137,17.5 17.5,391.129 17.5,850.391 V 1966.75 H 1683.29 V 850.391 C 1683.29,391.129 1309.66,17.5 850.391,17.5" /><path
         id="path16"
         style="fill:#231f20;fill-opacity:1;fill-rule:nonzero;stroke:none"
         d="M 1700.79,1984.25 H 0 V 850.391 C 0,380.73 380.734,0 850.391,0 1320.06,0 1700.79,380.73 1700.79,850.391 V 1984.25 Z m -35,-35 V 850.391 C 1665.79,400.781 1300.01,35 850.391,35 400.781,35 35,400.781 35,850.391 V 1949.25 h 1630.79" /><path
         id="path18"
         style="fill:#fddd04;fill-opacity:1;fill-rule:nonzero;stroke:none"
         d="m 678.215,1347.85 172.176,439.69 172.189,-439.69 466.87,70.73 -294.7,-368.95 294.7,-368.958 -466.87,70.726 L 850.391,311.711 678.215,751.398 211.34,680.672 506.031,1049.63 211.34,1418.58 678.215,1347.85" /><path
         id="path20"
         style="fill:none;stroke:#231f20;stroke-width:10;stroke-linecap:butt;stroke-linejoin:miter;stroke-miterlimit:10;stroke-dasharray:none;stroke-opacity:1"
         d="m 678.215,1347.85 172.176,439.69 172.189,-439.69 466.87,70.73 -294.7,-368.95 294.7,-368.958 -466.87,70.726 L 850.391,311.711 678.215,751.398 211.34,680.672 506.031,1049.63 211.34,1418.58 Z" /></g></g></svg>
